src/objects/sound/1F514.svg

<svg id="emoji" viewBox="0 0 72 72" xmlns="http://www.w3.org/2000/svg">
  <g id="grid">
    <path fill="#b3b3b3" d="M68,4V68H4V4H68m4-4H0V72H72V0Z"/>
    <path fill="none" stroke="#00a5ff" stroke-miterlimit="10" stroke-width="0.1" d="M12.923,10.9583H59.0769A1.9231,1.9231,0,0,1,61,12.8814V59.0352a1.9231,1.9231,0,0,1-1.9231,1.9231H12.9231A1.9231,1.9231,0,0,1,11,59.0352V12.8813A1.923,1.923,0,0,1,12.923,10.9583Z"/>
    <rect x="16" y="4" rx="2.2537" width="40" height="64" fill="none" stroke="#00a5ff" stroke-miterlimit="10" stroke-width="0.1"/>
    <rect x="16" y="4" rx="2.2537" width="40" height="64" transform="translate(72) rotate(90)" fill="none" stroke="#00a5ff" stroke-miterlimit="10" stroke-width="0.1"/>
    <circle cx="36" cy="36" r="29" fill="none" stroke="#00a5ff" stroke-miterlimit="10" stroke-width="0.1"/>
  </g>
  <g id="color">
    <circle cx="35.6102" cy="57.7716" r="5" fill="#f1b31c" stroke="#f1b31c" stroke-miterlimit="10" stroke-width="2"/>
    <path fill="#fcea2b" stroke="none" d="M56.1048,56.7825c0,0-2.0587-3.7664-3.254-9.5855c-1.3523-6.5836-1.8795-15.5146-2.246-19.4145 c-0.7752-8.2479-6.7157-15-15-15h-0.5c-8.2843,0-14.2248,6.7521-15,15c-0.3665,3.8999-0.8937,12.8309-2.246,19.4145 c-1.1953,5.8191-3.254,9.5855-3.254,9.5855H56.1048z"/>
  </g>
  <g id="hair"/>
  <g id="skin"/>
  <g id="skin-shadow"/>
  <g id="line">
    <path fill="none" stroke="#000000" stroke-linecap="round" stroke-linejoin="round" stroke-width="2" d="M30.1048,13.2825 c0-2.7614,2.2386-5,5-5c2.7614,0,5,2.2386,5,5"/>
    <path fill="none" stroke="#000000" stroke-linecap="round" stroke-linejoin="round" stroke-width="2" d="M40.0872,60.0005 c-0.8174,1.6487-2.5176,2.782-4.4824,2.782c-1.9659,0-3.6667-1.1345-4.4836-2.7845"/>
    <path fill="none" stroke="#000000" stroke-linecap="round" stroke-linejoin="round" stroke-miterlimit="10" stroke-width="1.8182" d="M56.1048,56.7825c0,0-2.0587-3.7664-3.254-9.5855c-1.3523-6.5836-1.8795-15.5146-2.246-19.4145c-0.7752-8.2479-6.7157-15-15-15 h-0.5c-8.2843,0-14.2248,6.7521-15,15c-0.3665,3.8999-0.8937,12.8309-2.246,19.4145c-1.1953,5.8191-3.254,9.5855-3.254,9.5855 H56.1048z"/>
  </g>
</svg>

<svg viewBox="0 0 72 72" xmlns="http://www.w3.org/2000/svg"><path fill="#b3b3b3" d="M68 4v64H4V4h64m4-4H0v72h72V0z"/><path fill="none" stroke="#00a5ff" stroke-miterlimit="10" stroke-width=".1" d="M12.923 10.958h46.154A1.923 1.923 0 0161 12.881v46.154a1.923 1.923 0 01-1.923 1.923H12.923A1.923 1.923 0 0111 59.035V12.881a1.923 1.923 0 011.923-1.923z"/><rect x="16" y="4" rx="2.254" width="40" height="64" fill="none" stroke="#00a5ff" stroke-miterlimit="10" stroke-width=".1"/><rect x="16" y="4" rx="2.254" width="40" height="64" transform="rotate(90 36 36)" fill="none" stroke="#00a5ff" stroke-miterlimit="10" stroke-width=".1"/><circle cx="36" cy="36" r="29" fill="none" stroke="#00a5ff" stroke-miterlimit="10" stroke-width=".1"/><g stroke-linecap="round" stroke-miterlimit="10" stroke-width="6" stroke="#fff" fill="none" stroke-linejoin="round"><path d="M30.105 13.283a5 5 0 0110 0M40.087 60a5 5 0 01-8.966-.002"/><path d="M56.105 56.782s-2.059-3.766-3.254-9.585c-1.352-6.584-1.88-15.515-2.246-19.415-.775-8.247-6.716-15-15-15h-.5c-8.284 0-14.225 6.753-15 15-.367 3.9-.894 12.831-2.246 19.415-1.196 5.82-3.254 9.585-3.254 9.585h41.5z"/></g><circle cx="35.61" cy="57.772" r="5" fill="#f1b31c" stroke="#f1b31c" stroke-miterlimit="10" stroke-width="2"/><path fill="#fcea2b" d="M56.105 56.782s-2.059-3.766-3.254-9.585c-1.352-6.584-1.88-15.515-2.246-19.415-.775-8.247-6.716-15-15-15h-.5c-8.284 0-14.225 6.753-15 15-.367 3.9-.894 12.831-2.246 19.415-1.196 5.82-3.254 9.585-3.254 9.585h41.5z"/><g fill="none" stroke="#000" stroke-linecap="round" stroke-linejoin="round"><path stroke-width="2" d="M30.105 13.283a5 5 0 0110 0M40.087 60a5 5 0 01-8.966-.002"/><path stroke-miterlimit="10" stroke-width="1.818" d="M56.105 56.782s-2.059-3.766-3.254-9.585c-1.352-6.584-1.88-15.515-2.246-19.415-.775-8.247-6.716-15-15-15h-.5c-8.284 0-14.225 6.753-15 15-.367 3.9-.894 12.831-2.246 19.415-1.196 5.82-3.254 9.585-3.254 9.585h41.5z"/></g></svg>
